X: 112
U:~=!turn!
M:C
L:1/8
K:F
.f(dcA) BGGA | (FA).c.f afTge | f(dTc)>B AFF || B | AcFc AcFc | TB>c (d/c/).B/.A/ BGGA |
(FA)cf afTge | f(dTc)>B AFFB | AcFc AcFc | TB>c (d/c/).B/.A/ BGGA | (FA)cf afTge | f(dTc)>B AFF |]


